X:180
T:Del Carors Hornpipe
O:No180 William Clarke of Feltwell
M:2/4
L:1/8
K:G
G>Bd>g|f>ed>e|d>cB>A|B>cdz|G>Bd>g|f>ed>c|B>AG>F|G2G2::G>Bd>g|(e/f/g) (e/f/g)|D>FA>c|(B/c/d) (B/c/d)|G>Bd>g|(e/f/g) (e/f/g)|d>cB>A|G2G2:|

